X:89
T:Shammie Breeches
M:2/4
L:1/8
K:G
c|Bd dg |ec cd | BG GB |AF FA | 
Bd dg|ec cd | BG AF |G2 G :|
|:d|BG dG |BG dG | AF cF| AFcF | 
BG dG|B/2A/2B/2c/2 dg | ec AF| G2 G:|
%%vskip 1.5cm
